X:200
T:Tripping Up the Stairs
K:D
M:6/8
L:1/8
FAA GBB|FAd fed|cBc ABc|1 dfe dAG :|2 dfe d3 :|
|: dBB fBB|fef fed|1 cAA eAA|efe edc :|2 cBc ABc|dfe d3 :|
